projects/volcano/stacked/color/volcano-stacked-color.svg

<svg viewBox="0 0 300.33334 204.66667" xmlns="http://www.w3.org/2000/svg" xmlns:xlink="http://www.w3.org/1999/xlink"><linearGradient id="a" gradientUnits="userSpaceOnUse" x1="150" x2="150" y1="146.88527" y2=".11465"><stop offset="0" stop-color="#eb5520"/><stop offset=".24727" stop-color="#eb511f"/><stop offset=".50344" stop-color="#eb441d"/><stop offset=".76272" stop-color="#eb301a"/><stop offset="1" stop-color="#eb1616"/></linearGradient><path d="m125.75628 40.43171-19.30217-19.30217a1.00256 1.00256 0 0 1 0-1.41781l19.304-19.304a.99988.99988 0 0 1 1.4145 0l19.304 19.304a1.00247 1.00247 0 0 1 0 1.41781l-19.30216 19.30217a1.00232 1.00232 0 0 1 -1.41817 0zm-5.11752 2.81249-16.99714-16.99714a1.00477 1.00477 0 0 0 -1.42074 0l-16.99714 16.99714a1.00455 1.00455 0 0 0 0 1.42111l17.00007 17.00008a1.00035 1.00035 0 0 0 1.41487 0l17.00008-17.00008a1.00522 1.00522 0 0 0 0-1.42111zm47.06824 0-16.99709-16.99714a1.00483 1.00483 0 0 0 -1.42079 0l-16.99712 16.99714a1.0052 1.0052 0 0 0 0 1.42111l16.99714 16.99714a1.00483 1.00483 0 0 0 1.42079 0l16.99707-16.99714a1.00522 1.00522 0 0 0 0-1.42111zm-72.90134 23.53724-14.70091-14.70091a1.00072 1.00072 0 0 0 -1.41519 0l-14.70056 14.70091a1.00033 1.00033 0 0 0 0 1.41487l14.70056 14.70091a1.00072 1.00072 0 0 0 1.41519 0l14.70091-14.70091a1.001 1.001 0 0 0 0-1.41487zm47.06787 0-14.70053-14.70091a1.00078 1.00078 0 0 0 -1.41524 0l-14.70056 14.70091a1.00035 1.00035 0 0 0 0 1.41487l14.70055 14.70091a1.00078 1.00078 0 0 0 1.41524 0l14.70054-14.70091a1.00033 1.00033 0 0 0 0-1.41487zm47.06824 0-14.70054-14.70091a1.00078 1.00078 0 0 0 -1.41524 0l-14.70049 14.70091a1.00024 1.00024 0 0 0 0 1.41487l14.7005 14.70091a1.00078 1.00078 0 0 0 1.41524 0l14.70054-14.70091a1.00024 1.00024 0 0 0 -.00001-1.41487zm-119.97251 23.53467-12.39918-12.39918a.99988.99988 0 0 0 -1.4145 0l-12.39914 12.39918a.99958.99958 0 0 0 0 1.41377l12.3995 12.39955a1.00012 1.00012 0 0 0 1.41414 0l12.39918-12.39955a.999.999 0 0 0 0-1.41377zm47.06861 0-12.39919-12.39918a1.00033 1.00033 0 0 0 -1.41487 0l-12.39918 12.39918a.99967.99967 0 0 0 0 1.41377l12.3996 12.39955a1.00006 1.00006 0 0 0 1.41409 0l12.39955-12.39955a.99967.99967 0 0 0 -0-1.41377zm47.06824 0-12.39955-12.39955a1.00012 1.00012 0 0 0 -1.41414 0l-12.39955 12.39955a.99976.99976 0 0 0 0 1.41377l12.39955 12.39955a1.00012 1.00012 0 0 0 1.41414 0l12.39955-12.39955a.99967.99967 0 0 0 0-1.41377zm47.06823 0-12.39955-12.39955a1.00011 1.00011 0 0 0 -1.41413 0l-12.39955 12.39955a.99967.99967 0 0 0 0 1.41377l12.39955 12.39955a1.00011 1.00011 0 0 0 1.41413 0l12.39955-12.39955a.99967.99967 0 0 0 0-1.41377zm-167.04334 23.53211-10.09339-10.09342a1.00254 1.00254 0 0 0 -1.4178 0l-10.09342 10.09342a1.00254 1.00254 0 0 0 0 1.4178l10.09342 10.09342a1.00254 1.00254 0 0 0 1.4178 0l10.09339-10.09344a1.00254 1.00254 0 0 0 0-1.41778zm47.06823 0-10.093-10.09342a1.003 1.003 0 0 0 -1.41818 0l-10.09342 10.09342a1.00254 1.00254 0 0 0 0 1.4178l10.09337 10.09342a1.003 1.003 0 0 0 1.41818 0l10.093-10.09342a1.00253 1.00253 0 0 0 .00008-1.4178zm47.06824 0-10.09302-10.09342a1.003 1.003 0 0 0 -1.41817 0l-10.09305 10.09342a1.00189 1.00189 0 0 0 0 1.4178l10.09305 10.09342a1.003 1.003 0 0 0 1.41817 0l10.09305-10.09344a1.00254 1.00254 0 0 0 0-1.41778zm47.06824 0-10.093-10.09342a1.00292 1.00292 0 0 0 -1.41811 0l-10.09311 10.09342a1.00254 1.00254 0 0 0 0 1.4178l10.09311 10.09342a1.00292 1.00292 0 0 0 1.41811 0l10.093-10.09342a1.00178 1.00178 0 0 0 .00003-1.4178zm47.06866 0-10.09344-10.09342a1.003 1.003 0 0 0 -1.41817 0l-10.093 10.09342a1.00244 1.00244 0 0 0 0 1.4178l10.093 10.09342a1.003 1.003 0 0 0 1.41817 0l10.09347-10.09344a1.00263 1.00263 0 0 0 0-1.41778zm-214.10791 23.53578-7.79457-7.79426a1 1 0 0 0 -1.41455 0l-7.79426 7.79426a.9999.9999 0 0 0 0 1.4145l7.79316 7.79315a1.00166 1.00166 0 0 0 1.41707 0l7.79315-7.79315a1.00055 1.00055 0 0 0 0-1.4145zm47.06829 0-7.79467-7.79426a.9999.9999 0 0 0 -1.4145 0l-7.79421 7.79426a.99979.99979 0 0 0 0 1.4145l7.79237 7.79242a1.00277 1.00277 0 0 0 1.41854 0l7.79247-7.79242a1.00064 1.00064 0 0 0 0-1.4145zm47.06819 0-7.79237-7.79242a1.00283 1.00283 0 0 0 -1.41859 0l-7.79058 7.79021a1.00387 1.00387 0 0 0 0 1.41891l7.79058 7.79022a1.00283 1.00283 0 0 0 1.41859 0l7.79237-7.79242a.9999.9999 0 0 0 0-1.4145zm47.066-.20255-7.79022-7.79022a1.00279 1.00279 0 0 0 -1.41854 0l-7.79242 7.79206a1.00033 1.00033 0 0 0 0 1.41487l7.79242 7.79242a1.00344 1.00344 0 0 0 1.41854 0l7.79028-7.79058a1.00279 1.00279 0 0 0 0-1.41856zm47.0686 0-7.79058-7.79022a1.00279 1.00279 0 0 0 -1.41854 0l-7.79242 7.79206a1.00033 1.00033 0 0 0 0 1.41487l7.79242 7.79242a1.00344 1.00344 0 0 0 1.41854 0l7.79062-7.79058a1.00344 1.00344 0 0 0 0-1.41856zm47.06824 0-7.79058-7.79022a1.00279 1.00279 0 0 0 -1.41854 0l-7.79242 7.79206a1.001 1.001 0 0 0 0 1.41487l7.79242 7.79242a1.00344 1.00344 0 0 0 1.41854 0l7.79062-7.79058a1.00333 1.00333 0 0 0 0-1.41856zm-78.39455-96.74827 19.3051-19.30511a1.00033 1.00033 0 0 0 0-1.41487l-19.3051-19.30547a1.00078 1.00078 0 0 0 -1.41524 0l-19.30511 19.30547a1.00035 1.00035 0 0 0 0 1.41487l19.30512 19.30511a1.00078 1.00078 0 0 0 1.41523 0zm23.53687 21.22927 16.99719-16.99714a1.00455 1.00455 0 0 0 0-1.42111l-16.99719-16.99714a1.00477 1.00477 0 0 0 -1.42074 0l-16.99714 16.99714a1.0052 1.0052 0 0 0 0 1.42111l16.99714 16.99714a1.00477 1.00477 0 0 0 1.42074 0zm23.53136 21.23477 14.70054-14.70091a1.00033 1.00033 0 0 0 0-1.41487l-14.70054-14.70091a1.00076 1.00076 0 0 0 -1.41523 0l-14.70055 14.70091a1.00035 1.00035 0 0 0 0 1.41487l14.70055 14.70091a1.00076 1.00076 0 0 0 1.41523 0zm23.53354 21.23221 12.39809-12.39808a1.00178 1.00178 0 0 0 0-1.4167l-12.39809-12.39809a1.00011 1.00011 0 0 0 -1.41413 0l-12.39915 12.39955a.999.999 0 0 0 0 1.41377l12.39918 12.39955a1.00011 1.00011 0 0 0 1.4141 0zm23.53614 21.23 10.09345-10.09343a1.00254 1.00254 0 0 0 0-1.4178l-10.09342-10.0934a1.00254 1.00254 0 0 0 -1.4178 0l-10.09337 10.09342a1.00265 1.00265 0 0 0 0 1.4178l10.09342 10.09342a1.00254 1.00254 0 0 0 1.41775 0zm23.53467 21.03113 7.79395-7.79426a.998.998 0 0 0 0-1.4112l-7.79395-7.79389a1.00322 1.00322 0 0 0 -1.4189 0l-7.79242 7.79206a1.001 1.001 0 0 0 0 1.41487l7.79242 7.79242a1.00387 1.00387 0 0 0 1.41893.00001z" fill="url(#a)"/><g fill="#0f0f0f"><path d="m85.23865 204.2836h-19.31014a11.04686 11.04686 0 0 1 -11.03446-11.03429v-5.51723a11.0469 11.0469 0 0 1 11.03446-11.03446h19.31014a11.04688 11.04688 0 0 1 11.03446 11.03446v5.51723a11.04685 11.04685 0 0 1 -11.03446 11.03429zm-19.31014-22.06875a5.52356 5.52356 0 0 0 -5.51723 5.51723v5.51723a5.52367 5.52367 0 0 0 5.51723 5.51723h19.31014a5.52356 5.52356 0 0 0 5.51723-5.51723v-5.51723a5.52345 5.52345 0 0 0 -5.51723-5.51723z"/><path d="m129.42635 204.2836h-18.80844a11.03437 11.03437 0 0 1 -11.03447-11.03429v-16.05a.50176.50176 0 0 1 .50173-.50172h4.51383a.50176.50176 0 0 1 .50173.50172v16.05a5.51725 5.51725 0 0 0 5.51723 5.51723h18.80844a.50163.50163 0 0 1 .50172.50155v4.514a.50163.50163 0 0 1 -.50177.50151z"/><path d="m48.00993 176.91141-15.38239 21.97479a.50156.50156 0 0 1 -.82189 0l-15.38221-21.97444a.50191.50191 0 0 0 -.411-.214h-5.50985a.50167.50167 0 0 0 -.411.78931l18.60807 26.58271a.50142.50142 0 0 0 .411.214h6.21189a.50188.50188 0 0 0 .411-.214l18.60895-26.58406a.5007.5007 0 0 0 -.41017-.78793h-5.51206a.50078.50078 0 0 0 -.41034.21362z"/><path d="m279.44429 204.2836h-19.31029a11.04671 11.04671 0 0 1 -11.03429-11.03429v-5.51723a11.04675 11.04675 0 0 1 11.03429-11.03446h19.3103a11.0469 11.0469 0 0 1 11.03446 11.03446v5.51723a11.04686 11.04686 0 0 1 -11.03447 11.03429zm-19.31029-22.06875a5.52341 5.52341 0 0 0 -5.51706 5.51723v5.51723a5.52352 5.52352 0 0 0 5.51706 5.51723h19.3103a5.52367 5.52367 0 0 0 5.51723-5.51723v-5.51723a5.52356 5.52356 0 0 0 -5.51723-5.51723z"/><path d="m165.83986 204.28377h-21.567a11.03434 11.03434 0 0 1 -11.03446-11.03429v-5.51723a11.03449 11.03449 0 0 1 11.03446-11.03446h21.567a.50177.50177 0 0 1 .50173.50173v4.51378a.50176.50176 0 0 1 -.50173.50172h-21.567a5.51724 5.51724 0 0 0 -5.51723 5.51723v5.51723a5.51709 5.51709 0 0 0 5.51723 5.51706h21.567a.50177.50177 0 0 1 .50173.50173v4.51395a.50161.50161 0 0 1 -.50173.50155z"/><path d="m195.031 176.69779h-13.7929a11.03451 11.03451 0 0 0 -11.03446 11.03446v16.05a.5016.5016 0 0 0 .50172.50155h4.51379a.50161.50161 0 0 0 .50172-.50155v-10.03125a.50161.50161 0 0 1 .50172-.50156h23.82392a.50161.50161 0 0 1 .50172.50156v10.03118a.50161.50161 0 0 0 .50173.50155h4.51378a.5016.5016 0 0 0 .50172-.50155v-16.05a11.03451 11.03451 0 0 0 -11.03446-11.03439zm-18.78234 11.03446a.49651.49651 0 0 1 -.50279-.52758 5.52493 5.52493 0 0 1 5.49223-4.98965h13.7929a5.52493 5.52493 0 0 1 5.49223 4.98965.49651.49651 0 0 1 -.50275.52758z"/><path d="m240.27213 177.19848v19.717a.50089.50089 0 0 1 -.83776.37069l-22.50375-20.45789a.50124.50124 0 0 0 -.33741-.13052h-6.16395a.50177.50177 0 0 0 -.50173.50173v26.58322a.50073.50073 0 0 0 .50087.50086h4.5155a.50083.50083 0 0 0 .50086-.50086v-19.7151a.50169.50169 0 0 1 .83914-.37121l22.50271 20.4572a.50086.50086 0 0 0 .3369.13017h6.165a.50083.50083 0 0 0 .50086-.50086v-26.58426a.501.501 0 0 0 -.50086-.50086h-4.51568a.50066.50066 0 0 0 -.5007.50069z"/></g></svg>

<svg id="图层_1" data-name="图层 1" xmlns="http://www.w3.org/2000/svg" xmlns:xlink="http://www.w3.org/1999/xlink" viewBox="0 0 300.33334 204.66667"><defs><style>.cls-1{fill:url(#未命名的渐变_48);}.cls-2{fill:#0f0f0f;}</style><linearGradient id="未命名的渐变_48" x1="150" y1="146.88527" x2="150" y2="0.11465" gradientUnits="userSpaceOnUse"><stop offset="0" stop-color="#eb5520"/><stop offset="0.24727" stop-color="#eb511f"/><stop offset="0.50344" stop-color="#eb441d"/><stop offset="0.76272" stop-color="#eb301a"/><stop offset="1" stop-color="#eb1616"/></linearGradient></defs><title>volcano-stacked-color</title><path class="cls-1" d="M125.75628,40.43171,106.45411,21.12954a1.00256,1.00256,0,0,1,0-1.41781l19.304-19.304a.99988.99988,0,0,1,1.4145,0l19.304,19.304a1.00247,1.00247,0,0,1,0,1.41781L127.17445,40.43171A1.00232,1.00232,0,0,1,125.75628,40.43171Zm-5.11752,2.81249L103.64162,26.24706a1.00477,1.00477,0,0,0-1.42074,0L85.22374,43.2442a1.00455,1.00455,0,0,0,0,1.42111l17.00007,17.00008a1.00035,1.00035,0,0,0,1.41487,0l17.00008-17.00008A1.00522,1.00522,0,0,0,120.63876,43.2442Zm47.06824,0L150.70991,26.24706a1.00483,1.00483,0,0,0-1.42079,0L132.292,43.2442a1.0052,1.0052,0,0,0,0,1.42111l16.99714,16.99714a1.00483,1.00483,0,0,0,1.42079,0L167.707,44.66531A1.00522,1.00522,0,0,0,167.707,43.2442ZM94.80566,66.78144,80.10475,52.08053a1.00072,1.00072,0,0,0-1.41519,0L63.989,66.78144a1.00033,1.00033,0,0,0,0,1.41487L78.68956,82.89722a1.00072,1.00072,0,0,0,1.41519,0L94.80566,68.19631A1.001,1.001,0,0,0,94.80566,66.78144Zm47.06787,0L127.173,52.08053a1.00078,1.00078,0,0,0-1.41524,0L111.0572,66.78144a1.00035,1.00035,0,0,0,0,1.41487l14.70055,14.70091a1.00078,1.00078,0,0,0,1.41524,0l14.70054-14.70091A1.00033,1.00033,0,0,0,141.87353,66.78144Zm47.06824,0L174.24123,52.08053a1.00078,1.00078,0,0,0-1.41524,0L158.1255,66.78144a1.00024,1.00024,0,0,0,0,1.41487L172.826,82.89722a1.00078,1.00078,0,0,0,1.41524,0l14.70054-14.70091A1.00024,1.00024,0,0,0,188.94177,66.78144ZM68.96926,90.31611,56.57008,77.91693a.99988.99988,0,0,0-1.4145,0L42.75644,90.31611a.99958.99958,0,0,0,0,1.41377l12.3995,12.39955a1.00012,1.00012,0,0,0,1.41414,0L68.96926,91.72988A.999.999,0,0,0,68.96926,90.31611Zm47.06861,0L103.63868,77.91693a1.00033,1.00033,0,0,0-1.41487,0L89.82463,90.31611a.99967.99967,0,0,0,0,1.41377l12.3996,12.39955a1.00006,1.00006,0,0,0,1.41409,0l12.39955-12.39955A.99967.99967,0,0,0,116.03787,90.31611Zm47.06824,0L150.70656,77.91656a1.00012,1.00012,0,0,0-1.41414,0L136.89287,90.31611a.99976.99976,0,0,0,0,1.41377l12.39955,12.39955a1.00012,1.00012,0,0,0,1.41414,0l12.39955-12.39955A.99967.99967,0,0,0,163.10611,90.31611Zm47.06823,0L197.77479,77.91656a1.00011,1.00011,0,0,0-1.41413,0L183.96111,90.31611a.99967.99967,0,0,0,0,1.41377l12.39955,12.39955a1.00011,1.00011,0,0,0,1.41413,0l12.39955-12.39955A.99967.99967,0,0,0,210.17434,90.31611ZM43.131,113.84822,33.03761,103.7548a1.00254,1.00254,0,0,0-1.4178,0L21.52639,113.84822a1.00254,1.00254,0,0,0,0,1.4178l10.09342,10.09342a1.00254,1.00254,0,0,0,1.4178,0L43.131,115.266A1.00254,1.00254,0,0,0,43.131,113.84822Zm47.06823,0-10.093-10.09342a1.003,1.003,0,0,0-1.41818,0L68.59463,113.84822a1.00254,1.00254,0,0,0,0,1.4178L78.688,125.35944a1.003,1.003,0,0,0,1.41818,0l10.093-10.09342A1.00253,1.00253,0,0,0,90.19926,113.84822Zm47.06824,0L127.17445,103.7548a1.003,1.003,0,0,0-1.41817,0l-10.09305,10.09342a1.00189,1.00189,0,0,0,0,1.4178l10.09305,10.09342a1.003,1.003,0,0,0,1.41817,0L137.2675,115.266A1.00254,1.00254,0,0,0,137.2675,113.84822Zm47.06824,0-10.093-10.09342a1.00292,1.00292,0,0,0-1.41811,0l-10.09311,10.09342a1.00254,1.00254,0,0,0,0,1.4178l10.09311,10.09342a1.00292,1.00292,0,0,0,1.41811,0l10.093-10.09342A1.00178,1.00178,0,0,0,184.33574,113.84822Zm47.06866,0L221.31093,103.7548a1.003,1.003,0,0,0-1.41817,0l-10.093,10.09342a1.00244,1.00244,0,0,0,0,1.4178l10.093,10.09342a1.003,1.003,0,0,0,1.41817,0L231.4044,115.266A1.00263,1.00263,0,0,0,231.4044,113.84822ZM17.29646,137.384l-7.79457-7.79426a1,1,0,0,0-1.41455,0L.29308,137.384a.9999.9999,0,0,0,0,1.4145l7.79316,7.79315a1.00166,1.00166,0,0,0,1.41707,0l7.79315-7.79315A1.00055,1.00055,0,0,0,17.29646,137.384Zm47.06829,0-7.79467-7.79426a.9999.9999,0,0,0-1.4145,0L47.36137,137.384a.99979.99979,0,0,0,0,1.4145l7.79237,7.79242a1.00277,1.00277,0,0,0,1.41854,0l7.79247-7.79242A1.00064,1.00064,0,0,0,64.36475,137.384Zm47.06819,0-7.79237-7.79242a1.00283,1.00283,0,0,0-1.41859,0l-7.79058,7.79021a1.00387,1.00387,0,0,0,0,1.41891l7.79058,7.79022a1.00283,1.00283,0,0,0,1.41859,0l7.79237-7.79242A.9999.9999,0,0,0,111.43294,137.384Zm47.066-.20255-7.79022-7.79022a1.00279,1.00279,0,0,0-1.41854,0l-7.79242,7.79206a1.00033,1.00033,0,0,0,0,1.41487l7.79242,7.79242a1.00344,1.00344,0,0,0,1.41854,0L158.499,138.6A1.00279,1.00279,0,0,0,158.499,137.18144Zm47.0686,0-7.79058-7.79022a1.00279,1.00279,0,0,0-1.41854,0l-7.79242,7.79206a1.00033,1.00033,0,0,0,0,1.41487l7.79242,7.79242a1.00344,1.00344,0,0,0,1.41854,0L205.56758,138.6A1.00344,1.00344,0,0,0,205.56758,137.18144Zm47.06824,0-7.79058-7.79022a1.00279,1.00279,0,0,0-1.41854,0l-7.79242,7.79206a1.001,1.001,0,0,0,0,1.41487l7.79242,7.79242a1.00344,1.00344,0,0,0,1.41854,0L252.63582,138.6A1.00333,1.00333,0,0,0,252.63582,137.18144ZM174.24123,40.43318l19.3051-19.30511a1.00033,1.00033,0,0,0,0-1.41487L174.24123.40773a1.00078,1.00078,0,0,0-1.41524,0L153.52088,19.7132a1.00035,1.00035,0,0,0,0,1.41487L172.826,40.43318A1.00078,1.00078,0,0,0,174.24123,40.43318ZM197.7781,61.66245l16.99719-16.99714a1.00455,1.00455,0,0,0,0-1.42111L197.7781,26.24706a1.00477,1.00477,0,0,0-1.42074,0L179.36022,43.2442a1.0052,1.0052,0,0,0,0,1.42111l16.99714,16.99714A1.00477,1.00477,0,0,0,197.7781,61.66245Zm23.53136,21.23477L236.01,68.19631a1.00033,1.00033,0,0,0,0-1.41487L221.30946,52.08053a1.00076,1.00076,0,0,0-1.41523,0L205.19368,66.78144a1.00035,1.00035,0,0,0,0,1.41487l14.70055,14.70091A1.00076,1.00076,0,0,0,221.30946,82.89722ZM244.843,104.12943l12.39809-12.39808a1.00178,1.00178,0,0,0,0-1.4167L244.843,77.91656a1.00011,1.00011,0,0,0-1.41413,0L231.02972,90.31611a.999.999,0,0,0,0,1.41377l12.39918,12.39955A1.00011,1.00011,0,0,0,244.843,104.12943Zm23.53614,21.23L278.47259,115.266a1.00254,1.00254,0,0,0,0-1.4178L268.37917,103.7548a1.00254,1.00254,0,0,0-1.4178,0L256.868,113.84822a1.00265,1.00265,0,0,0,0,1.4178l10.09342,10.09342A1.00254,1.00254,0,0,0,268.37917,125.35944Zm23.53467,21.03113,7.79395-7.79426a.998.998,0,0,0,0-1.4112l-7.79395-7.79389a1.00322,1.00322,0,0,0-1.4189,0l-7.79242,7.79206a1.001,1.001,0,0,0,0,1.41487l7.79242,7.79242A1.00387,1.00387,0,0,0,291.91384,146.39057Z"/><path class="cls-2" d="M85.23865,204.2836H65.92851a11.04686,11.04686,0,0,1-11.03446-11.03429v-5.51723a11.0469,11.0469,0,0,1,11.03446-11.03446H85.23865a11.04688,11.04688,0,0,1,11.03446,11.03446v5.51723A11.04685,11.04685,0,0,1,85.23865,204.2836ZM65.92851,182.21485a5.52356,5.52356,0,0,0-5.51723,5.51723v5.51723a5.52367,5.52367,0,0,0,5.51723,5.51723H85.23865a5.52356,5.52356,0,0,0,5.51723-5.51723v-5.51723a5.52345,5.52345,0,0,0-5.51723-5.51723Z"/><path class="cls-2" d="M129.42635,204.2836H110.61791a11.03437,11.03437,0,0,1-11.03447-11.03429v-16.05a.50176.50176,0,0,1,.50173-.50172H104.599a.50176.50176,0,0,1,.50173.50172v16.05a5.51725,5.51725,0,0,0,5.51723,5.51723h18.80844a.50163.50163,0,0,1,.50172.50155v4.514A.50163.50163,0,0,1,129.42635,204.2836Z"/><path class="cls-2" d="M48.00993,176.91141,32.62754,198.8862a.50156.50156,0,0,1-.82189,0L16.42344,176.91176a.50191.50191,0,0,0-.411-.214H10.50259a.50167.50167,0,0,0-.411.78931l18.60807,26.58271a.50142.50142,0,0,0,.411.214h6.21189a.50188.50188,0,0,0,.411-.214L54.3425,177.48572a.5007.5007,0,0,0-.41017-.78793H48.42027A.50078.50078,0,0,0,48.00993,176.91141Z"/><path class="cls-2" d="M279.44429,204.2836H260.134a11.04671,11.04671,0,0,1-11.03429-11.03429v-5.51723A11.04675,11.04675,0,0,1,260.134,176.69762h19.3103a11.0469,11.0469,0,0,1,11.03446,11.03446v5.51723A11.04686,11.04686,0,0,1,279.44429,204.2836ZM260.134,182.21485a5.52341,5.52341,0,0,0-5.51706,5.51723v5.51723a5.52352,5.52352,0,0,0,5.51706,5.51723h19.3103a5.52367,5.52367,0,0,0,5.51723-5.51723v-5.51723a5.52356,5.52356,0,0,0-5.51723-5.51723Z"/><path class="cls-2" d="M165.83986,204.28377h-21.567a11.03434,11.03434,0,0,1-11.03446-11.03429v-5.51723a11.03449,11.03449,0,0,1,11.03446-11.03446h21.567a.50177.50177,0,0,1,.50173.50173v4.51378a.50176.50176,0,0,1-.50173.50172h-21.567a5.51724,5.51724,0,0,0-5.51723,5.51723v5.51723a5.51709,5.51709,0,0,0,5.51723,5.51706h21.567a.50177.50177,0,0,1,.50173.50173v4.51395A.50161.50161,0,0,1,165.83986,204.28377Z"/><path class="cls-2" d="M195.031,176.69779h-13.7929a11.03451,11.03451,0,0,0-11.03446,11.03446v16.05a.5016.5016,0,0,0,.50172.50155h4.51379a.50161.50161,0,0,0,.50172-.50155V193.751a.50161.50161,0,0,1,.50172-.50156h23.82392a.50161.50161,0,0,1,.50172.50156v10.03118a.50161.50161,0,0,0,.50173.50155h4.51378a.5016.5016,0,0,0,.50172-.50155v-16.05A11.03451,11.03451,0,0,0,195.031,176.69779Zm-18.78234,11.03446a.49651.49651,0,0,1-.50279-.52758,5.52493,5.52493,0,0,1,5.49223-4.98965H195.031a5.52493,5.52493,0,0,1,5.49223,4.98965.49651.49651,0,0,1-.50275.52758Z"/><path class="cls-2" d="M240.27213,177.19848v19.717a.50089.50089,0,0,1-.83776.37069l-22.50375-20.45789a.50124.50124,0,0,0-.33741-.13052h-6.16395a.50177.50177,0,0,0-.50173.50173v26.58322a.50073.50073,0,0,0,.50087.50086h4.5155a.50083.50083,0,0,0,.50086-.50086V184.06761a.50169.50169,0,0,1,.83914-.37121l22.50271,20.4572a.50086.50086,0,0,0,.3369.13017h6.165a.50083.50083,0,0,0,.50086-.50086V177.19865a.501.501,0,0,0-.50086-.50086h-4.51568A.50066.50066,0,0,0,240.27213,177.19848Z"/></svg>
